build/svg/cmd/sc_selectdb.svg

<svg xmlns="http://www.w3.org/2000/svg" viewBox="0 0 16 16"><path d="M8 8l.004 6.049L9.764 12H13z" fill="#fff" stroke-width="2" stroke="#fff" stroke-linejoin="round"/><path d="M8 8l.004 6.049L9.764 12H13z" fill="#232629"/><path fill="#fff" fill-rule="evenodd" d="M2 5h2v8H2z"/><path fill="#a6d74f" fill-rule="evenodd" d="M2 2h11v2H2z"/><path d="M1 3v9c0 2 1 2 3 2h1V5h9V3c0-2-1-2-3-2H4C2 1 1 1 1 3zm1 0c0-1 1-1 2-1v2H2zm3-1h2v2H5zm3 0h2v2H8zm3 0c1 0 2 0 2 1v1h-2zM2 5h2v2H2zm0 3h2v2H2zm0 3h2v2c-1 0-2 0-2-1z" fill="#6d6d6d" fill-rule="evenodd"/></svg>

<?xml version="1.0" encoding="UTF-8" standalone="no"?>
<svg
   xmlns:dc="http://purl.org/dc/elements/1.1/"
   xmlns:cc="http://creativecommons.org/ns#"
   xmlns:rdf="http://www.w3.org/1999/02/22-rdf-syntax-ns#"
   xmlns:svg="http://www.w3.org/2000/svg"
   xmlns="http://www.w3.org/2000/svg"
   xmlns:sodipodi="http://sodipodi.sourceforge.net/DTD/sodipodi-0.dtd"
   xmlns:inkscape="http://www.inkscape.org/namespaces/inkscape"
   viewBox="0 0 16 16"
   version="1.1"
   id="svg6"
   sodipodi:docname="sc_selectdb.svg"
   inkscape:export-filename="/home/jupiter007/Libreoffice yaru theme fullcolor/build/cmd/sc_selectdb.png"
   inkscape:export-xdpi="96"
   inkscape:export-ydpi="96"
   inkscape:version="0.92.5 (2060ec1f9f, 2020-04-08)">
  <metadata
     id="metadata12">
    <rdf:RDF>
      <cc:Work
         rdf:about="">
        <dc:format>image/svg+xml</dc:format>
        <dc:type
           rdf:resource="http://purl.org/dc/dcmitype/StillImage" />
      </cc:Work>
    </rdf:RDF>
  </metadata>
  <defs
     id="defs10" />
  <sodipodi:namedview
     pagecolor="#ffffff"
     bordercolor="#666666"
     borderopacity="1"
     objecttolerance="10"
     gridtolerance="10"
     guidetolerance="10"
     inkscape:pageopacity="0"
     inkscape:pageshadow="2"
     inkscape:window-width="1920"
     inkscape:window-height="1011"
     id="namedview8"
     showgrid="true"
     inkscape:zoom="29.5"
     inkscape:cx="2.565209"
     inkscape:cy="9.3356323"
     inkscape:window-x="0"
     inkscape:window-y="32"
     inkscape:window-maximized="1"
     inkscape:current-layer="svg6">
    <inkscape:grid
       type="xygrid"
       id="grid832" />
  </sodipodi:namedview>
  <path
     style="fill:#ffffff;stroke-width:2;fill-opacity:1;stroke:#ffffff;stroke-miterlimit:4;stroke-dasharray:none;stroke-linejoin:round"
     inkscape:connector-curvature="0"
     id="path834"
     d="M 8,8 8.00363,14.048611 9.7636669,12 H 13 Z" />
  <path
     d="M 8,8 8.00363,14.048611 9.7636669,12 H 13 Z"
     id="path4"
     inkscape:connector-curvature="0"
     style="fill:#232629;stroke-width:0.62036997;fill-opacity:1" />
  <rect
     style="opacity:1;fill:#ffffff;fill-opacity:1;fill-rule:evenodd;stroke:none;stroke-width:2;stroke-linecap:butt;stroke-linejoin:round;stroke-miterlimit:4;stroke-dasharray:none;stroke-opacity:1"
     id="rect843"
     width="2"
     height="8"
     x="2"
     y="4.9999995" />
  <rect
     style="opacity:1;fill:#a6d74f;fill-opacity:1;fill-rule:evenodd;stroke:none;stroke-width:2;stroke-linecap:butt;stroke-linejoin:round;stroke-miterlimit:4;stroke-dasharray:none;stroke-opacity:1"
     id="rect845"
     width="11"
     height="2"
     x="2"
     y="1.9999998" />
  <path
     style="opacity:1;fill:#6d6d6d;fill-opacity:1;fill-rule:evenodd;stroke:none;stroke-width:2;stroke-linecap:butt;stroke-linejoin:round;stroke-miterlimit:4;stroke-dasharray:none;stroke-opacity:1"
     d="m 1,3 v 2 7 c 0,2 1,2 3,2 H 5 V 5 h 9 V 3 C 14,1 13,1 11,1 H 5 4 C 2,1 1,1 1,3 Z M 2,3 C 2,2 3,2 4,2 V 4 H 2 Z M 5,2 H 7 V 4 H 5 Z M 8.0000004,2 H 10 V 4 H 8.0000004 Z M 11,2 c 1,0 2,0 2,1 V 4 H 11 Z M 2,5 H 4 V 7 H 2 Z m 0,3 h 2 v 2 H 2 Z m 0,3 h 2 v 2 C 3,13 2,13 2,12 Z"
     id="rect824"
     inkscape:connector-curvature="0"
     sodipodi:nodetypes="ccccccccccccccccccccccccccccccccccccccccccccccc" />
</svg>
